Dominus_Dark_Funeral/symbolic/categories/applications-engineering-symbolic.svg

<svg xmlns="http://www.w3.org/2000/svg" width="24" height="24"><defs><linearGradient id="a"><stop offset="0" stop-color="#babdb6"/><stop offset=".25" stop-color="#ededed"/><stop offset=".53" stop-color="#b6b9b1"/><stop offset=".83" stop-color="#e9eae8"/><stop offset="1" stop-color="#b5b9b2"/></linearGradient><linearGradient id="b"><stop offset="0" stop-color="#a1a29e"/><stop offset="1" stop-color="#888a85" stop-opacity="0"/></linearGradient><linearGradient id="c"><stop offset="0"/><stop offset="1" stop-opacity="0"/></linearGradient></defs><path d="M18.39 6.78l-2.9 5.89-.99-.48 2.9-5.9zm3.63-4.71l-.27.5c-.31.57-.95 1.74-1.86 1.98l-.85 1.74-1.64-.8.84-1.71c-.4-.92.18-2.28.44-2.88l.17-.4zM20.63 3l-1.66-.82c-.2.7-.25 1.35.24 1.59.53.26 1-.14 1.42-.77zm-8.85 15.34c.45-.06 1.54-.1 2.42.56.16.13.3.27.44.42l.6-1.2.26-.55.9-1.82c.12-.25-.45-.73-1.4-1.27l.49-1-1.64-.81-.5 1a5.86 5.86 0 0 0-1.6-.43c-.14 0-.23.03-.26.1l-1.23 2.49-.56 1.13-.02.05a.46.46 0 0 0-.02.29c.69.06 1.42.35 2.12 1.04zm6.19 2.3c0-.58-.55-.75-.97-.75a.87.87 0 0 0-.33.07c.16-.24.25-.53.25-.84 0-.67-.35-1.19-.81-1.32l-.96 1.94a.7.7 0 0 1-.13.18c.2.42.32.91.37 1.48a.38.38 0 0 1-.76.06c-.07-.9-.37-1.56-.89-1.95-.84-.63-2-.4-2.02-.4l-.21.05-.15-.16c-1.84-1.97-3.74-.29-3.82-.21a.38.38 0 0 1-.52-.57c.43-.38 1.15-.8 2-.9a.76.76 0 0 1 .05-.46l.18-.36.33-.68c-.23 0-.2.02-.42.09a3.28 3.28 0 0 0-2.6-1.27 3.23 3.23 0 0 0-3.16 3.96c-1.03.43-1.72 1.2-1.72 2.09 0 .28.07.55.2.8-.46.2-.77.59-.77 1.03 0 .6.56 1.08 1.29 1.16v.02H17.18l.18.02h.01l.25.02c.88 0 1.6-.7 1.6-1.57-.01-.75-.54-1.37-1.25-1.53z" fill="gray"/></svg>

<?xml version="1.0" encoding="UTF-8" standalone="no"?>
<svg
   xmlns:dc="http://purl.org/dc/elements/1.1/"
   xmlns:cc="http://creativecommons.org/ns#"
   xmlns:rdf="http://www.w3.org/1999/02/22-rdf-syntax-ns#"
   xmlns:svg="http://www.w3.org/2000/svg"
   xmlns="http://www.w3.org/2000/svg"
   xmlns:sodipodi="http://sodipodi.sourceforge.net/DTD/sodipodi-0.dtd"
   xmlns:inkscape="http://www.inkscape.org/namespaces/inkscape"
   width="24"
   height="24"
   version="1.1"
   id="svg27"
   sodipodi:docname="applications-engineering-symbolic.svg"
   inkscape:version="0.92.4 (5da689c313, 2019-01-14)">
  <metadata
     id="metadata31">
    <rdf:RDF>
      <cc:Work
         rdf:about="">
        <dc:format>image/svg+xml</dc:format>
        <dc:type
           rdf:resource="http://purl.org/dc/dcmitype/StillImage" />
        <dc:title></dc:title>
      </cc:Work>
    </rdf:RDF>
  </metadata>
  <sodipodi:namedview
     pagecolor="#ffffff"
     bordercolor="#666666"
     borderopacity="1"
     objecttolerance="10"
     gridtolerance="10"
     guidetolerance="10"
     inkscape:pageopacity="0"
     inkscape:pageshadow="2"
     inkscape:window-width="1112"
     inkscape:window-height="480"
     id="namedview29"
     showgrid="false"
     inkscape:zoom="9.8333333"
     inkscape:cx="1.0677966"
     inkscape:cy="12"
     inkscape:window-x="0"
     inkscape:window-y="25"
     inkscape:window-maximized="0"
     inkscape:current-layer="svg27" />
  <defs
     id="defs23">
    <linearGradient
       id="a">
      <stop
         offset="0"
         stop-color="#babdb6"
         id="stop2" />
      <stop
         offset=".25"
         stop-color="#ededed"
         id="stop4" />
      <stop
         offset=".53"
         stop-color="#b6b9b1"
         id="stop6" />
      <stop
         offset=".83"
         stop-color="#e9eae8"
         id="stop8" />
      <stop
         offset="1"
         stop-color="#b5b9b2"
         id="stop10" />
    </linearGradient>
    <linearGradient
       id="b">
      <stop
         offset="0"
         stop-color="#a1a29e"
         id="stop13" />
      <stop
         offset="1"
         stop-color="#888a85"
         stop-opacity="0"
         id="stop15" />
    </linearGradient>
    <linearGradient
       id="c">
      <stop
         offset="0"
         id="stop18" />
      <stop
         offset="1"
         stop-opacity="0"
         id="stop20" />
    </linearGradient>
  </defs>
  <path
     d="m 18.39,6.78 -2.9,5.89 -0.99,-0.48 2.9,-5.9 z m 3.63,-4.71 -0.27,0.5 C 21.44,3.14 20.8,4.31 19.89,4.55 L 19.04,6.29 17.4,5.49 18.24,3.78 C 17.84,2.86 18.42,1.5 18.68,0.9 L 18.85,0.5 Z M 20.63,3 18.97,2.18 c -0.2,0.7 -0.25,1.35 0.24,1.59 0.53,0.26 1,-0.14 1.42,-0.77 z m -8.85,15.34 c 0.45,-0.06 1.54,-0.1 2.42,0.56 0.16,0.13 0.3,0.27 0.44,0.42 l 0.6,-1.2 0.26,-0.55 0.9,-1.82 C 16.52,15.5 15.95,15.02 15,14.48 l 0.49,-1 -1.64,-0.81 -0.5,1 a 5.86,5.86 0 0 0 -1.6,-0.43 c -0.14,0 -0.23,0.03 -0.26,0.1 L 10.26,15.83 9.7,16.96 9.68,17.01 A 0.46,0.46 0 0 0 9.66,17.3 c 0.69,0.06 1.42,0.35 2.12,1.04 z m 6.19,2.3 c 0,-0.58 -0.55,-0.75 -0.97,-0.75 a 0.87,0.87 0 0 0 -0.33,0.07 c 0.16,-0.24 0.25,-0.53 0.25,-0.84 0,-0.67 -0.35,-1.19 -0.81,-1.32 l -0.96,1.94 a 0.7,0.7 0 0 1 -0.13,0.18 c 0.2,0.42 0.32,0.91 0.37,1.48 a 0.38118237,0.38118237 0 0 1 -0.76,0.06 c -0.07,-0.9 -0.37,-1.56 -0.89,-1.95 -0.84,-0.63 -2,-0.4 -2.02,-0.4 L 11.51,19.16 11.36,19 C 9.52,17.03 7.62,18.71 7.54,18.79 A 0.38577843,0.38577843 0 0 1 7.02,18.22 c 0.43,-0.38 1.15,-0.8 2,-0.9 A 0.76,0.76 0 0 1 9.07,16.86 L 9.25,16.5 9.58,15.82 c -0.23,0 -0.2,0.02 -0.42,0.09 A 3.28,3.28 0 0 0 6.56,14.64 3.23,3.23 0 0 0 3.4,18.6 c -1.03,0.43 -1.72,1.2 -1.72,2.09 0,0.28 0.07,0.55 0.2,0.8 -0.46,0.2 -0.77,0.59 -0.77,1.03 0,0.6 0.56,1.08 1.29,1.16 v 0.02 h 14.78 l 0.18,0.02 h 0.01 l 0.25,0.02 c 0.88,0 1.6,-0.7 1.6,-1.57 -0.01,-0.75 -0.54,-1.37 -1.25,-1.53 z"
     id="path25"
     inkscape:connector-curvature="0"
     style="fill:#808080" />
</svg>
